client/public/img/game/shared/perks/hollow_points.svg

<?xml version="1.0" encoding="UTF-8" standalone="no"?>
<svg
   xml:space="preserve"
   width="59.745407"
   height="79.75972"
   viewBox="0 0 15.807869 21.103302"
   version="1.1"
   id="svg29"
   sodipodi:docname="hollow_points.svg"
   inkscape:version="1.4 (86a8ad7, 2024-10-11)"
   xmlns:inkscape="http://www.inkscape.org/namespaces/inkscape"
   xmlns:sodipodi="http://sodipodi.sourceforge.net/DTD/sodipodi-0.dtd"
   xmlns:xlink="http://www.w3.org/1999/xlink"
   xmlns="http://www.w3.org/2000/svg"
   xmlns:svg="http://www.w3.org/2000/svg"><sodipodi:namedview
     id="namedview29"
     pagecolor="#ffffff"
     bordercolor="#000000"
     borderopacity="0.25"
     inkscape:showpageshadow="2"
     inkscape:pageopacity="0.0"
     inkscape:pagecheckerboard="0"
     inkscape:deskcolor="#d1d1d1"
     inkscape:zoom="6.8566745"
     inkscape:cx="33.179349"
     inkscape:cy="50.170093"
     inkscape:window-width="1920"
     inkscape:window-height="991"
     inkscape:window-x="-9"
     inkscape:window-y="-9"
     inkscape:window-maximized="1"
     inkscape:current-layer="svg29" /><defs
     id="defs2"><linearGradient
       id="a"><stop
         offset=".625"
         style="stop-color:#8e7423;stop-opacity:1"
         id="stop1" /><stop
         offset=".625"
         style="stop-color:#cda832;stop-opacity:1"
         id="stop2" /></linearGradient><linearGradient
       xlink:href="#a"
       id="b"
       x1="39.133999"
       x2="39.215"
       y1="6.665"
       y2="6.77"
       gradientTransform="translate(11.146,8.698)"
       gradientUnits="userSpaceOnUse" /></defs><path
     d="M 10.245969,1.7453904 C 9.6199759,1.7294552 9.3928388,2.4481327 9.3928388,2.4481327 L 9.5762657,1.9174906 C 9.3694226,1.8752623 9.2851243,2.0991518 9.2851243,2.0991518 8.9549559,2.6688352 8.7262576,4.3085673 8.7262576,4.3085673 c -0.096006,0.6565303 0,0.9067129 0,0.9067129 h 3.5038434 c 0,0 0.09601,-0.2501826 0,-0.9067129 0,0 -0.228698,-1.6397321 -0.558866,-2.2094155 0,0 -0.0843,-0.2230928 -0.291922,-0.1816612 l 0.184207,0.5306421 c 0,0 -0.276311,-0.8756392 -1.059973,-0.6732622 l -0.02576,0.79676 -0.02498,-0.79676 a 0.936648,0.956112 0 0 0 -0.206843,-0.030277"
     style="fill:#a17446;fill-opacity:1;fill-rule:evenodd;stroke:none;stroke-width:0.417305;stroke-linecap:round;stroke-linejoin:round;stroke-miterlimit:29;stroke-dasharray:none;stroke-opacity:1"
     id="path2" /><path
     d="m 11.639233,4.8344289 c 0,0 -0.01015,-1.5632431 -0.638482,-2.8747101 h 0.754782 l 0.547939,2.8930356 h -0.655653 z"
     style="fill:#b98e60;fill-opacity:1;fill-rule:evenodd;stroke:none;stroke-width:0.383798;stroke-linecap:round;stroke-linejoin:round;stroke-miterlimit:29;stroke-dasharray:none;stroke-opacity:1"
     id="path3" /><path
     d="M 9.3928388,2.4481327 9.5762657,1.9174906 C 9.3694226,1.8752623 9.2851243,2.0991518 9.2851243,2.0991518 8.9549559,2.6688352 8.7262576,4.3085673 8.7262576,4.3085673 c -0.096006,0.6565303 0,0.9067129 0,0.9067129 h 3.5038434 c 0,0 0.09601,-0.2501826 0,-0.9067129 0,0 -0.228698,-1.6397321 -0.558866,-2.2094155 0,0 -0.0843,-0.2230928 -0.291922,-0.1816612 l 0.184207,0.5306421 c 0,0 -0.109275,-0.8581105 -1.059973,-0.6732622 l -0.02576,0.79676 -0.02498,-0.79676 c -0.2888,-0.096408 -1.0841698,0 -1.0599731,0.6732622"
     style="fill:none;fill-opacity:1;fill-rule:evenodd;stroke:#231b0c;stroke-width:0.710986;stroke-linecap:round;stroke-linejoin:round;stroke-miterlimit:29;stroke-dasharray:none;stroke-opacity:1"
     id="path4" /><path
     d="m 8.6638144,5.0439768 0.00781,8.0090312 H 8.851144 v 0.553749 H 8.6716198 v 0.814288 h 3.6209252 v -0.814288 h -0.18811 v -0.553749 h 0.187329 V 5.0447736 Z"
     style="fill:#b7952e;fill-opacity:1;fill-rule:evenodd;stroke:#221e0b;stroke-width:0.710986;stroke-linecap:round;stroke-linejoin:round;stroke-miterlimit:29;stroke-dasharray:none;stroke-opacity:1"
     id="path5" /><path
     d="m 9.0642315,13.163758 h 2.8396045 v 0.395193 H 9.0642315 Z"
     style="fill:#7a641f;fill-opacity:1;fill-rule:evenodd;stroke:none;stroke-width:0.413563;stroke-linecap:round;stroke-linejoin:round;stroke-miterlimit:29;stroke-dasharray:none;stroke-opacity:1"
     id="path6" /><path
     d="M 8.6638144,13.032293 H 12.277714 M 8.6638144,13.651375 H 12.277714"
     style="fill:#cca633;fill-opacity:1;fill-rule:evenodd;stroke:#221e0b;stroke-width:0.417305;stroke-linecap:round;stroke-linejoin:round;stroke-miterlimit:29;stroke-dasharray:none;stroke-opacity:1"
     id="path7" /><path
     d="m 11.636111,5.2551182 h 0.475348 v 7.5652358 h -0.475348 z"
     style="fill:#d1af48;fill-opacity:1;fill-rule:evenodd;stroke:none;stroke-width:0.336409;stroke-linecap:round;stroke-linejoin:round;stroke-miterlimit:29;stroke-dasharray:none;stroke-opacity:1"
     id="path8" /><path
     d="m 11.629866,13.862516 h 0.483935 v 0.344998 h -0.483935 z"
     style="fill:#d1af48;fill-opacity:1;fill-rule:evenodd;stroke:none;stroke-width:0.072437;stroke-linecap:round;stroke-linejoin:round;stroke-miterlimit:29;stroke-dasharray:none;stroke-opacity:1"
     id="path9" /><path
     d="M 6.876486,0.3693608 C 6.1630749,0.3512004 5.9042188,1.1702344 5.9042188,1.1702344 L 6.1132607,0.56549312 C 5.8775326,0.51736806 5.7814623,0.77252168 5.7814623,0.77252168 5.4051869,1.421756 5.1445516,3.2904611 5.1445516,3.2904611 c -0.1094134,0.7482085 0,1.0333268 0,1.0333268 h 3.9931451 c 0,0 0.1094134,-0.2851183 0,-1.0333268 0,0 -0.2606352,-1.8687051 -0.6369106,-2.51793942 0,0 -0.09607,-0.2542456 -0.332688,-0.20702856 L 8.3780295,1.1702344 c 0,0 -0.3148971,-0.99791394 -1.2079953,-0.76727686 L 7.1406794,1.3109775 7.1122141,0.40295754 A 1.067448,1.089624 0 0 0 6.876486,0.36845278"
     style="fill:#b2804d;fill-opacity:1;fill-rule:evenodd;stroke:none;stroke-width:0.47558;stroke-linecap:round;stroke-linejoin:round;stroke-miterlimit:29;stroke-dasharray:none;stroke-opacity:1"
     id="path10" /><path
     d="m 8.4643149,3.8897543 c 0,0 -0.011564,-1.7815352 -0.7276437,-3.27613612 H 8.5968564 L 9.2213135,3.9106388 H 8.4740999 Z"
     style="fill:#c19971;fill-opacity:1;fill-rule:evenodd;stroke:none;stroke-width:0.437393;stroke-linecap:round;stroke-linejoin:round;stroke-miterlimit:29;stroke-dasharray:none;stroke-opacity:1"
     id="path11" /><path
     d="m 5.774346,3.8879383 c 0,0 0.011564,-1.7806272 0.6867248,-3.27613616 H 5.6498104 L 5.0600453,3.9097308 h 0.7062948 z"
     style="fill:#8e663e;fill-opacity:1;fill-rule:evenodd;stroke:none;stroke-width:0.424954;stroke-linecap:round;stroke-linejoin:round;stroke-miterlimit:29;stroke-dasharray:none;stroke-opacity:1"
     id="path12" /><path
     d="M 5.9042188,1.1702344 6.1132607,0.56549312 C 5.8775326,0.51736806 5.7814623,0.77252168 5.7814623,0.77252168 5.4051869,1.421756 5.1445516,3.2904611 5.1445516,3.2904611 c -0.1094134,0.7482085 0,1.0333268 0,1.0333268 h 3.9931451 c 0,0 0.1094134,-0.2851183 0,-1.0333268 0,0 -0.2606352,-1.8687051 -0.6369106,-2.51793942 0,0 -0.09607,-0.2542456 -0.332688,-0.20702856 L 8.3780295,1.1702344 c 0,0 -0.1245356,-0.9779375 -1.2079953,-0.76727686 L 7.1406794,1.3109775 7.1122141,0.40295754 c -0.3291298,-0.10987042 -1.235571,0 -1.2079953,0.76727686"
     style="fill:none;fill-opacity:1;fill-rule:evenodd;stroke:#231b0c;stroke-width:0.710984;stroke-linecap:round;stroke-linejoin:round;stroke-miterlimit:29;stroke-dasharray:none;stroke-opacity:1"
     id="path13" /><path
     d="m 5.0733884,4.1285636 0.0089,9.1274174 H 5.286878 v 0.631074 H 5.0822838 v 0.927996 H 9.2088599 V 13.887055 H 8.9944808 V 13.255981 H 9.2079704 V 4.1294716 Z"
     style="fill:#cca633;fill-opacity:1;fill-rule:evenodd;stroke:#221e0b;stroke-width:0.710984;stroke-linecap:round;stroke-linejoin:round;stroke-miterlimit:29;stroke-dasharray:none;stroke-opacity:1"
     id="path14" /><path
     d="M 5.5297225,13.382195 H 8.765869 v 0.450378 H 5.5297225 Z"
     style="fill:#7a641f;fill-opacity:1;fill-rule:evenodd;stroke:none;stroke-width:0.471314;stroke-linecap:round;stroke-linejoin:round;stroke-miterlimit:29;stroke-dasharray:none;stroke-opacity:1"
     id="path15" /><path
     d="M 5.0733884,13.232372 H 9.1919586 M 5.0733884,13.937904 H 9.1919586"
     style="fill:#cca633;fill-opacity:1;fill-rule:evenodd;stroke:#221e0b;stroke-width:0.47558;stroke-linecap:round;stroke-linejoin:round;stroke-miterlimit:29;stroke-dasharray:none;stroke-opacity:1"
     id="path16" /><path
     d="M 8.4607568,4.3691889 H 9.0024866 V 12.990839 H 8.4607568 Z"
     style="fill:#d6b85c;fill-opacity:1;fill-rule:evenodd;stroke:none;stroke-width:0.383387;stroke-linecap:round;stroke-linejoin:round;stroke-miterlimit:29;stroke-dasharray:none;stroke-opacity:1"
     id="path17" /><path
     d="m 8.4536404,14.178529 h 0.5515148 v 0.393173 H 8.4536404 Z"
     style="fill:#d6b85c;fill-opacity:1;fill-rule:evenodd;stroke:none;stroke-width:0.0825524;stroke-linecap:round;stroke-linejoin:round;stroke-miterlimit:29;stroke-dasharray:none;stroke-opacity:1"
     id="path18" /><path
     d="M 5.7779041,4.3673729 H 5.2664186 v 8.6216501 h 0.5114855 z"
     style="fill:#a38529;fill-opacity:1;fill-rule:evenodd;stroke:none;stroke-width:0.372483;stroke-linecap:round;stroke-linejoin:round;stroke-miterlimit:29;stroke-dasharray:none;stroke-opacity:1"
     id="path19" /><path
     d="M 5.7903577,14.176713 H 5.26375 v 0.393173 h 0.5266077 z"
     style="fill:#a38529;fill-opacity:1;fill-rule:evenodd;stroke:none;stroke-width:0.0806555;stroke-linecap:round;stroke-linejoin:round;stroke-miterlimit:29;stroke-dasharray:none;stroke-opacity:1"
     id="path20" /><g
     transform="matrix(0.78254,0,0,0.7988,-28.635624,0.216)"
     id="g29"><path
       d="m 49.942,14.744 c -0.717,0.01 -1.038,0.26 -1.038,0.26 0,0 -2.955,2.034 -4.428,3.054 l 3.885,1.972 0.568,2.766 3.085,-4.048 v -0.012 q 0.14,-0.164 0.244,-0.354 c 0.597,-1.095 0.144,-2.555 -1.012,-3.261 a 2.5,2.5 0 0 0 -1.304,-0.377"
       style="fill:#d6b85c;fill-opacity:1;fill-rule:evenodd;stroke:none;stroke-width:0.538377;stroke-linecap:round;stroke-linejoin:round;stroke-miterlimit:29;stroke-opacity:1"
       id="path21" /><path
       d="m 46.763,18.1 3.928,-2.947 c 0,0 -0.974,-0.317 -1.543,0.011 l -3.835,2.713 c 0,0 0.713,-0.093 1.45,0.222"
       style="fill:#cca633;fill-opacity:1;fill-rule:evenodd;stroke:none;stroke-width:0.529167;stroke-linecap:round;stroke-linejoin:round;stroke-miterlimit:29;stroke-dasharray:none;stroke-opacity:1"
       id="path22" /><path
       d="m 48.169,15.557 c 0,0 2.2,-1.487 3.619,0.97 0,0 0.9,1.548 -0.205,2.652 m 0,0 c 0,0 0.94,-2.056 -0.906,-3.385 0,0 -1.055,-0.841 -2.508,-0.237"
       style="fill:url(#b);fill-opacity:1;fill-rule:evenodd;stroke:none;stroke-width:0.529167;stroke-linecap:round;stroke-linejoin:round;stroke-miterlimit:29;stroke-dasharray:none;stroke-opacity:1"
       id="path23" /><path
       d="m 49.941,14.744 c -0.717,0.01 -1.038,0.26 -1.038,0.26 0,0 -3.632,2.58 -5.106,3.6 l 4.563,1.426 -0.027,3.279 3.68,-4.561 v -0.012 q 0.14,-0.164 0.244,-0.354 c 0.598,-1.095 0.145,-2.555 -1.012,-3.26 a 2.5,2.5 0 0 0 -1.304,-0.378"
       style="fill:none;fill-opacity:1;fill-rule:evenodd;stroke:#221e0b;stroke-width:0.899274;stroke-linecap:round;stroke-linejoin:round;stroke-miterlimit:29;stroke-dasharray:none;stroke-opacity:1"
       id="path24" /><path
       d="m 43.491,18.901 c 0.555,-0.588 3.173,-1.908 5.078,1.253 0,0 1.107,1.939 -0.613,3.642 0,0 -1.529,1.475 -4.018,1.885 -0.596,0.033 -2.415,-0.165 -2.58,-2.58 0,0 -0.13,-1.769 2.133,-4.2"
       style="fill:#9b714a;fill-opacity:1;fill-rule:evenodd;stroke:none;stroke-width:0.529167;stroke-linecap:round;stroke-linejoin:round;stroke-miterlimit:29;stroke-dasharray:none;stroke-opacity:1"
       id="path25" /><path
       d="m 46.252,18.471 c 0,0 -2.16,1.67 -1.78,3.086 l -0.071,0.202 c 0,0 -0.749,-0.62 -2.456,0.152 l -0.105,-0.76 1.917,-2.619 c 0,0 2.336,-0.636 2.495,-0.06"
       style="fill:#8a6542;fill-opacity:1;fill-rule:evenodd;stroke:none;stroke-width:0.529167;stroke-linecap:round;stroke-linejoin:round;stroke-miterlimit:29;stroke-dasharray:none;stroke-opacity:1"
       id="path26" /><path
       d="m 43.49,18.901 c 0.556,-0.588 3.174,-1.908 5.079,1.253 0,0 1.107,1.939 -0.613,3.642 0,0 -1.529,1.475 -4.019,1.885 -0.595,0.033 -2.414,-0.165 -2.58,-2.58 0,0 -0.128,-1.769 2.134,-4.2"
       style="fill:none;fill-opacity:1;fill-rule:evenodd;stroke:#231b0c;stroke-width:0.899274;stroke-linecap:round;stroke-linejoin:round;stroke-miterlimit:29;stroke-dasharray:none;stroke-opacity:1"
       id="path27" /><ellipse
       cx="46.176998"
       cy="-18.254"
       rx="2.0799999"
       ry="1.847"
       style="fill:#47331f;fill-opacity:1;fill-rule:evenodd;stroke:none;stroke-width:0.509943;stroke-linecap:round;stroke-linejoin:round;stroke-miterlimit:29;stroke-dasharray:none;stroke-opacity:1"
       transform="matrix(0.6428,0.76603,-0.75871,0.65143,0,0)"
       id="ellipse27" /><ellipse
       cx="46.214001"
       cy="-18.909"
       rx="1.406"
       ry="1.248"
       style="fill:#362a1d;fill-opacity:1;fill-rule:evenodd;stroke:none;stroke-width:0.344617;stroke-linecap:round;stroke-linejoin:round;stroke-miterlimit:29;stroke-dasharray:none;stroke-opacity:1"
       transform="matrix(0.6428,0.76603,-0.75871,0.65143,0,0)"
       id="ellipse28" /><ellipse
       cx="46.176998"
       cy="-18.254"
       rx="2.0799999"
       ry="1.847"
       style="fill:none;fill-opacity:1;fill-rule:evenodd;stroke:#231b0c;stroke-width:0.509943;stroke-linecap:round;stroke-linejoin:round;stroke-miterlimit:29;stroke-dasharray:none;stroke-opacity:1"
       transform="matrix(0.6428,0.76603,-0.75871,0.65143,0,0)"
       id="ellipse29" /><path
       d="m 43.474,21.382 c 0,0 -0.027,-0.595 0.272,-1.14 m 1.812,3.438 c 0,0 0.55,-0.016 1.156,-0.275 m -1.818,-1.263 c 0,0 0.497,-0.545 0.993,-0.959 m -0.926,3.787 c 0,0 0.148,0.248 0.463,0.314 m -3.39,-3.505 c 0,0 -0.116,-0.199 -0.133,-0.513"
       style="fill:none;fill-opacity:1;fill-rule:evenodd;stroke:#231b0c;stroke-width:0.529167;stroke-linecap:round;stroke-linejoin:round;stroke-miterlimit:29;stroke-dasharray:none;stroke-opacity:1"
       id="path29" /></g></svg>

<svg xmlns="http://www.w3.org/2000/svg" xmlns:xlink="http://www.w3.org/1999/xlink" xml:space="preserve" width="59.745" height="79.76" viewBox="0 0 15.808 21.103"><defs><linearGradient id="a"><stop offset=".625" style="stop-color:#8e7423;stop-opacity:1"/><stop offset=".625" style="stop-color:#cda832;stop-opacity:1"/></linearGradient><linearGradient xlink:href="#a" id="b" x1="39.134" x2="39.215" y1="6.665" y2="6.77" gradientTransform="translate(11.146 8.698)" gradientUnits="userSpaceOnUse"/></defs><path d="M10.246 1.745c-.626-.016-.853.703-.853.703l.183-.53c-.207-.043-.29.181-.29.181-.331.57-.56 2.21-.56 2.21-.096.656 0 .906 0 .906h3.504s.096-.25 0-.906c0 0-.229-1.64-.559-2.21 0 0-.084-.223-.292-.182l.185.531s-.277-.876-1.06-.673l-.026.797-.025-.797a.937.956 0 0 0-.207-.03" style="fill:#a17446;fill-opacity:1;fill-rule:evenodd;stroke:none;stroke-width:.417305;stroke-linecap:round;stroke-linejoin:round;stroke-miterlimit:29;stroke-dasharray:none;stroke-opacity:1"/><path d="M11.64 4.834S11.63 3.271 11 1.96h.756l.547 2.893h-.655z" style="fill:#b98e60;fill-opacity:1;fill-rule:evenodd;stroke:none;stroke-width:.383798;stroke-linecap:round;stroke-linejoin:round;stroke-miterlimit:29;stroke-dasharray:none;stroke-opacity:1"/><path d="m9.393 2.448.183-.53c-.207-.043-.29.181-.29.181-.331.57-.56 2.21-.56 2.21-.096.656 0 .906 0 .906h3.504s.096-.25 0-.906c0 0-.229-1.64-.559-2.21 0 0-.084-.223-.292-.182l.185.531s-.11-.858-1.06-.673l-.026.797-.025-.797c-.289-.097-1.084 0-1.06.673" style="fill:none;fill-opacity:1;fill-rule:evenodd;stroke:#231b0c;stroke-width:.710986;stroke-linecap:round;stroke-linejoin:round;stroke-miterlimit:29;stroke-dasharray:none;stroke-opacity:1"/><path d="m8.664 5.044.008 8.009h.18v.554h-.18v.814h3.62v-.814h-.188v-.554h.188V5.045Z" style="fill:#b7952e;fill-opacity:1;fill-rule:evenodd;stroke:#221e0b;stroke-width:.710986;stroke-linecap:round;stroke-linejoin:round;stroke-miterlimit:29;stroke-dasharray:none;stroke-opacity:1"/><path d="M9.064 13.164h2.84v.395h-2.84Z" style="fill:#7a641f;fill-opacity:1;fill-rule:evenodd;stroke:none;stroke-width:.413563;stroke-linecap:round;stroke-linejoin:round;stroke-miterlimit:29;stroke-dasharray:none;stroke-opacity:1"/><path d="M8.664 13.032h3.614m-3.614.62h3.614" style="fill:#cca633;fill-opacity:1;fill-rule:evenodd;stroke:#221e0b;stroke-width:.417305;stroke-linecap:round;stroke-linejoin:round;stroke-miterlimit:29;stroke-dasharray:none;stroke-opacity:1"/><path d="M11.636 5.255h.475v7.565h-.475z" style="fill:#d1af48;fill-opacity:1;fill-rule:evenodd;stroke:none;stroke-width:.336409;stroke-linecap:round;stroke-linejoin:round;stroke-miterlimit:29;stroke-dasharray:none;stroke-opacity:1"/><path d="M11.63 13.863h.484v.345h-.484z" style="fill:#d1af48;fill-opacity:1;fill-rule:evenodd;stroke:none;stroke-width:.072437;stroke-linecap:round;stroke-linejoin:round;stroke-miterlimit:29;stroke-dasharray:none;stroke-opacity:1"/><path d="M6.876.37c-.713-.019-.972.8-.972.8l.21-.605C5.877.517 5.78.773 5.78.773c-.376.649-.636 2.517-.636 2.517-.11.749 0 1.034 0 1.034h3.993s.11-.285 0-1.034c0 0-.26-1.868-.637-2.517 0 0-.096-.255-.333-.208l.21.605S8.063.172 7.17.403l-.03.908-.028-.908a1.067 1.09 0 0 0-.236-.035" style="fill:#b2804d;fill-opacity:1;fill-rule:evenodd;stroke:none;stroke-width:.47558;stroke-linecap:round;stroke-linejoin:round;stroke-miterlimit:29;stroke-dasharray:none;stroke-opacity:1"/><path d="M8.464 3.89S8.453 2.108 7.737.614h.86L9.22 3.91h-.747Z" style="fill:#c19971;fill-opacity:1;fill-rule:evenodd;stroke:none;stroke-width:.437393;stroke-linecap:round;stroke-linejoin:round;stroke-miterlimit:29;stroke-dasharray:none;stroke-opacity:1"/><path d="M5.774 3.888s.012-1.78.687-3.276H5.65L5.06 3.91h.706z" style="fill:#8e663e;fill-opacity:1;fill-rule:evenodd;stroke:none;stroke-width:.424954;stroke-linecap:round;stroke-linejoin:round;stroke-miterlimit:29;stroke-dasharray:none;stroke-opacity:1"/><path d="m5.904 1.17.21-.605C5.877.517 5.78.773 5.78.773c-.376.649-.636 2.517-.636 2.517-.11.749 0 1.034 0 1.034h3.993s.11-.285 0-1.034c0 0-.26-1.868-.637-2.517 0 0-.096-.255-.333-.208l.21.605S8.253.192 7.17.403l-.03.908-.028-.908c-.329-.11-1.235 0-1.208.767" style="fill:none;fill-opacity:1;fill-rule:evenodd;stroke:#231b0c;stroke-width:.710984;stroke-linecap:round;stroke-linejoin:round;stroke-miterlimit:29;stroke-dasharray:none;stroke-opacity:1"/><path d="m5.073 4.129.01 9.127h.204v.631h-.205v.928H9.21v-.928h-.215v-.631h.214V4.129Z" style="fill:#cca633;fill-opacity:1;fill-rule:evenodd;stroke:#221e0b;stroke-width:.710984;stroke-linecap:round;stroke-linejoin:round;stroke-miterlimit:29;stroke-dasharray:none;stroke-opacity:1"/><path d="M5.53 13.382h3.236v.45H5.53Z" style="fill:#7a641f;fill-opacity:1;fill-rule:evenodd;stroke:none;stroke-width:.471314;stroke-linecap:round;stroke-linejoin:round;stroke-miterlimit:29;stroke-dasharray:none;stroke-opacity:1"/><path d="M5.073 13.232h4.119m-4.119.706h4.119" style="fill:#cca633;fill-opacity:1;fill-rule:evenodd;stroke:#221e0b;stroke-width:.47558;stroke-linecap:round;stroke-linejoin:round;stroke-miterlimit:29;stroke-dasharray:none;stroke-opacity:1"/><path d="M8.46 4.37h.542v8.62h-.541Z" style="fill:#d6b85c;fill-opacity:1;fill-rule:evenodd;stroke:none;stroke-width:.383387;stroke-linecap:round;stroke-linejoin:round;stroke-miterlimit:29;stroke-dasharray:none;stroke-opacity:1"/><path d="M8.454 14.179h.551v.393h-.551Z" style="fill:#d6b85c;fill-opacity:1;fill-rule:evenodd;stroke:none;stroke-width:.0825524;stroke-linecap:round;stroke-linejoin:round;stroke-miterlimit:29;stroke-dasharray:none;stroke-opacity:1"/><path d="M5.778 4.367h-.512v8.622h.512z" style="fill:#a38529;fill-opacity:1;fill-rule:evenodd;stroke:none;stroke-width:.372483;stroke-linecap:round;stroke-linejoin:round;stroke-miterlimit:29;stroke-dasharray:none;stroke-opacity:1"/><path d="M5.79 14.177h-.526v.393h.526z" style="fill:#a38529;fill-opacity:1;fill-rule:evenodd;stroke:none;stroke-width:.0806555;stroke-linecap:round;stroke-linejoin:round;stroke-miterlimit:29;stroke-dasharray:none;stroke-opacity:1"/><g transform="matrix(.78254 0 0 .7988 -28.636 .216)"><path d="M49.942 14.744c-.717.01-1.038.26-1.038.26s-2.955 2.034-4.428 3.054l3.885 1.972.568 2.766 3.085-4.048v-.012q.14-.164.244-.354c.597-1.095.144-2.555-1.012-3.261a2.5 2.5 0 0 0-1.304-.377" style="fill:#d6b85c;fill-opacity:1;fill-rule:evenodd;stroke:none;stroke-width:.538377;stroke-linecap:round;stroke-linejoin:round;stroke-miterlimit:29;stroke-opacity:1"/><path d="m46.763 18.1 3.928-2.947s-.974-.317-1.543.011l-3.835 2.713s.713-.093 1.45.222" style="fill:#cca633;fill-opacity:1;fill-rule:evenodd;stroke:none;stroke-width:.529167;stroke-linecap:round;stroke-linejoin:round;stroke-miterlimit:29;stroke-dasharray:none;stroke-opacity:1"/><path d="M48.169 15.557s2.2-1.487 3.619.97c0 0 .9 1.548-.205 2.652m0 0s.94-2.056-.906-3.385c0 0-1.055-.841-2.508-.237" style="fill:url(#b);fill-opacity:1;fill-rule:evenodd;stroke:none;stroke-width:.529167;stroke-linecap:round;stroke-linejoin:round;stroke-miterlimit:29;stroke-dasharray:none;stroke-opacity:1"/><path d="M49.941 14.744c-.717.01-1.038.26-1.038.26s-3.632 2.58-5.106 3.6l4.563 1.426-.027 3.279 3.68-4.561v-.012q.14-.164.244-.354c.598-1.095.145-2.555-1.012-3.26a2.5 2.5 0 0 0-1.304-.378" style="fill:none;fill-opacity:1;fill-rule:evenodd;stroke:#221e0b;stroke-width:.899274;stroke-linecap:round;stroke-linejoin:round;stroke-miterlimit:29;stroke-dasharray:none;stroke-opacity:1"/><path d="M43.491 18.901c.555-.588 3.173-1.908 5.078 1.253 0 0 1.107 1.939-.613 3.642 0 0-1.529 1.475-4.018 1.885-.596.033-2.415-.165-2.58-2.58 0 0-.13-1.769 2.133-4.2" style="fill:#9b714a;fill-opacity:1;fill-rule:evenodd;stroke:none;stroke-width:.529167;stroke-linecap:round;stroke-linejoin:round;stroke-miterlimit:29;stroke-dasharray:none;stroke-opacity:1"/><path d="M46.252 18.471s-2.16 1.67-1.78 3.086l-.071.202s-.749-.62-2.456.152l-.105-.76 1.917-2.619s2.336-.636 2.495-.06" style="fill:#8a6542;fill-opacity:1;fill-rule:evenodd;stroke:none;stroke-width:.529167;stroke-linecap:round;stroke-linejoin:round;stroke-miterlimit:29;stroke-dasharray:none;stroke-opacity:1"/><path d="M43.49 18.901c.556-.588 3.174-1.908 5.079 1.253 0 0 1.107 1.939-.613 3.642 0 0-1.529 1.475-4.019 1.885-.595.033-2.414-.165-2.58-2.58 0 0-.128-1.769 2.134-4.2" style="fill:none;fill-opacity:1;fill-rule:evenodd;stroke:#231b0c;stroke-width:.899274;stroke-linecap:round;stroke-linejoin:round;stroke-miterlimit:29;stroke-dasharray:none;stroke-opacity:1"/><ellipse cx="46.177" cy="-18.254" rx="2.08" ry="1.847" style="fill:#47331f;fill-opacity:1;fill-rule:evenodd;stroke:none;stroke-width:.509943;stroke-linecap:round;stroke-linejoin:round;stroke-miterlimit:29;stroke-dasharray:none;stroke-opacity:1" transform="rotate(49.35)scale(.99993 1)skewY(.648)"/><ellipse cx="46.214" cy="-18.909" rx="1.406" ry="1.248" style="fill:#362a1d;fill-opacity:1;fill-rule:evenodd;stroke:none;stroke-width:.344617;stroke-linecap:round;stroke-linejoin:round;stroke-miterlimit:29;stroke-dasharray:none;stroke-opacity:1" transform="rotate(49.35)scale(.99993 1)skewY(.648)"/><ellipse cx="46.177" cy="-18.254" rx="2.08" ry="1.847" style="fill:none;fill-opacity:1;fill-rule:evenodd;stroke:#231b0c;stroke-width:.509943;stroke-linecap:round;stroke-linejoin:round;stroke-miterlimit:29;stroke-dasharray:none;stroke-opacity:1" transform="rotate(49.35)scale(.99993 1)skewY(.648)"/><path d="M43.474 21.382s-.027-.595.272-1.14m1.812 3.438s.55-.016 1.156-.275m-1.818-1.263s.497-.545.993-.959m-.926 3.787s.148.248.463.314m-3.39-3.505s-.116-.199-.133-.513" style="fill:none;fill-opacity:1;fill-rule:evenodd;stroke:#231b0c;stroke-width:.529167;stroke-linecap:round;stroke-linejoin:round;stroke-miterlimit:29;stroke-dasharray:none;stroke-opacity:1"/></g></svg>
